X:1
T:Title
%%score { ( 1 4 ) | ( 2 3 ) }
L:1/8
Q:1/4=100
M:4/4
K:F
V:1 treble nm="Grand Piano"
V:4 treble 
V:2 bass 
V:3 bass 
V:1
 A2 A2 AG [A,F]2 | [B,DF]2[K:bass] [F,B,D]2 [A,C]4 | [A,DF]2 [A,DF]2 [CEG]2 [CEG]2 | z4 c2 z2 | %4
w: Geo.~C.~Hugg * * * *||||
 [CFA]2 [CFA]2 .[B,EA]2 [A,DF]2 | [B,DF]2[K:bass] [F,B,D]2 [A,C]4 | %6
w: ||
 [F,B,D]2[K:treble] [B,DF]2 [DFB]2 [CFA]2 | [B,EA]2 [B,EG]2 F4 | A3 A AAAA | [Ac]6 z2 | F3 F FFFF | %11
w: |||||
 [A,^CA]6 z2 | [DG]3 [DG] [DG][DG][Ed][Ed] | c4 A4 | %14
w: |||
 [A,F][B,EG][CFA][Q:1/4=94][DGB] [CFA]2[Q:1/4=88] [B,EG]2[Q:1/4=99][Q:1/4=97][Q:1/4=96][Q:1/4=93][Q:1/4=91][Q:1/4=90][Q:1/4=87][Q:1/4=85] | %15
w: |
[M:6/4] [A,F]12[Q:1/4=84][Q:1/4=82][Q:1/4=81][Q:1/4=79][Q:1/4=78][Q:1/4=76] |] %16
w: |
V:2
 z4 .C2 z2 | B,,2 B,,2 F,4 | D,2 D,2 C,2 C,2 | F,2 A,2 z2[K:treble] B2 | F,2 F,2 z G D,2 | %5
 B,,2 B,,2 F,4 | B,,2 B,,2 B,,2 C,2 | C,2 C,2 [F,A,]4 | [F,CF]3 [F,CF] [F,CF][F,CF][F,CF][F,CF] | %9
 [F,F]6 z2 | [D,A,D]3 [D,A,D] [D,A,D][D,A,D][D,A,D][D,A,D] | A,,6 z2 | %12
 B,,3 [B,,B,] [B,,B,][B,,B,][C,B,][C,B,] | [F,F]4- [F,CF]4 | D,C,F,B,, C,2 C,2 |[M:6/4] F,12 |] %16
V:3
 [F,CF]2 [F,CF]2 [F,F]-[F,B,F] F,2 | x8 | x8 | z4 G,4[K:treble] | z4 C,2 z2 | x8 | x8 | x8 | x8 | %9
 x8 | x8 | x8 | x8 | A,4 z4 | x8 |[M:6/4] x12 |] %16
V:4
 x8 | x2[K:bass] x6 | x8 | [CFA]2 [CFc]2 [CE]4 | x8 | x2[K:bass] x6 | x2[K:treble] x6 | x8 | x8 | %9
 x8 | x8 | x8 | x8 | x8 | x8 |[M:6/4] x12 |] %16

